**harm	**harte	**timestamp	**phrase	**leadinstrument	**kern
*M12/8	*M12/8	*	*	*	*
*C:	*C:	*	*	*	*C:
1r;	N	0	.	r	1r;
=1	=1	=1	=1	=1	=1
*>A_intro	*>A_intro	*>A_intro	*>A_intro	*>A_intro	*>A_intro
2.I	C:maj	0.279	newline	tenor horn	2C 2e 2g
2.vi	A:min	2.178	.	tenor horn	2A 2cc 2ee
=2	=2	=2	=2	=2	=2
2.I	C:maj	4.078	.	tenor horn	2C 2e 2g
2.vi	A:min	5.977	.	tenor horn	2A 2cc 2ee
=3	=3	=3	=3	=3	=3
2.I	C:maj	7.877	.	tenor horn	2C 2e 2g
2.vi	A:min	9.777	.	tenor horn	2A 2cc 2ee
=4	=4	=4	=4	=4	=4
2.I	C:maj	11.676	.	tenor horn	2C 2e 2g
2.vi	A:min	13.576	.	tenor horn	2A 2cc 2ee
=5	=5	=5	=5	=5	=5
*>B_verse	*>B_verse	*>B_verse	*>B_verse	*>B_verse	*>B_verse
2.I	C:maj	15.475	newline	voice	2C 2e 2g
2.vi	A:min	17.362	.	voice	2A 2cc 2ee
=6	=6	=6	=6	=6	=6
2.IV	F:maj	19.249	.	voice	2F 2a 2cc
4.Ic	C:maj/5	21.136	.	voice	4c 4e 4G
4.V	G:maj	22.08	.	voice	4G 4b 4dd
=7	=7	=7	=7	=7	=7
2.I	C:maj	23.023	.	voice	2C 2e 2g
2.vi	A:min	24.91	.	voice	2A 2cc 2ee
=8	=8	=8	=8	=8	=8
2.IV	F:maj	26.797	.	voice	2F 2a 2cc
2.V	G:maj	28.684	.	voice	2G 2b 2dd
=9	=9	=9	=9	=9	=9
2.I	C:maj	30.571	newline	voice	2C 2e 2g
4.-VIIe	B-:maj/2	32.454	.	voice	4B- 4dd 4ff
4.Im7	C:7	33.396	.	voice	4C 4e 4g 4b
=10	=10	=10	=10	=10	=10
2.IV	F:maj	34.337	.	voice	2F 2a 2cc
4.III7	E:7	36.22	.	voice	4E 4g# 4b 4dd
4.vi	A:min	37.162	.	voice	4A 4cc 4ee
=11	=11	=11	=11	=11	=11
2.Ic	C:maj/5	38.104	newline	voice	2c 2e 2G
2.vi	A:min	40.002	.	voice	2A 2cc 2ee
=12	=12	=12	=12	=12	=12
4.IV	F:maj	41.9	.	voice	4F 4a 4cc
4.IVg	F:maj/6	42.849	.	voice	4F 4a 4cc
4.Ib	C:maj/3	43.798	.	voice	4c 4E 4g
4.vi	A:min	44.747	.	voice	4A 4cc 4ee
=13	=13	=13	=13	=13	=13
2.ii7	D:min7	45.696	newline	voice	2D 2f 2a 2cc
2.V7	G:7	47.594	.	voice	2G 2b 2dd 2ff
=14	=14	=14	=14	=14	=14
2.V7	G:11	49.493	.	voice	2G 2b 2dd 2ff
2.V7	G:7	51.391	.	voice	2G 2b 2dd 2ff
=15	=15	=15	=15	=15	=15
*>B_verse	*>B_verse	*>B_verse	*>B_verse	*>B_verse	*>B_verse
2.I	C:maj	53.29	newline	voice	2C 2e 2g
2.vi	A:min	55.218	.	voice	2A 2cc 2ee
=16	=16	=16	=16	=16	=16
2.IV	F:maj	57.147	.	voice	2F 2a 2cc
4.Ic	C:maj/5	59.076	.	voice	4c 4e 4G
4.V	G:maj	60.041	.	voice	4G 4b 4dd
=17	=17	=17	=17	=17	=17
2.I	C:maj	61.005	.	voice	2C 2e 2g
2.vi	A:min	62.934	.	voice	2A 2cc 2ee
=18	=18	=18	=18	=18	=18
2.IV	F:maj	64.863	.	voice	2F 2a 2cc
2.V	G:maj	66.792	.	voice	2G 2b 2dd
=19	=19	=19	=19	=19	=19
2.I	C:maj	68.721	newline	voice	2C 2e 2g
4.-VIIe	B-:maj/2	70.691	.	voice	4B- 4dd 4ff
4.Im7	C:7	71.676	.	voice	4C 4e 4g 4b
=20	=20	=20	=20	=20	=20
2.IV	F:maj	72.661	.	voice	2F 2a 2cc
4.III7	E:7	74.63	.	voice	4E 4g# 4b 4dd
4.vi	A:min	75.615	.	voice	4A 4cc 4ee
=21	=21	=21	=21	=21	=21
2.Ic	C:maj/5	76.6	newline	voice	2c 2e 2G
2.vi	A:min	78.574	.	voice	2A 2cc 2ee
=22	=22	=22	=22	=22	=22
4.IV	F:maj	80.548	.	voice	4F 4a 4cc
4.IVg	F:maj/6	81.534	.	voice	4F 4a 4cc
4.Ib	C:maj/3	82.521	.	voice	4c 4E 4g
4.V	G:maj	83.508	.	voice	4G 4b 4dd
=23	=23	=23	=23	=23	=23
2.I	C:maj	84.495	newline	voice	2C 2e 2g
2.IV	F:maj	86.398	.	voice	2F 2a 2cc
=24	=24	=24	=24	=24	=24
2.I	C:maj	88.302	.	voice	2C 2e 2g
2.Im7	C:7	90.205	.	voice	2C 2e 2g 2b
=25	=25	=25	=25	=25	=25
*>C_bridge	*>C_bridge	*>C_bridge	*>C_bridge	*>C_bridge	*>C_bridge
2.IV	F:maj	92.108	newline	voice	2F 2a 2cc
2.#ivo	F#:dim	94.059	.	voice	2F# 2a 2cc
=26	=26	=26	=26	=26	=26
2.I	C:maj	96.01	.	voice	2C 2e 2g
2.Im7	C:7	97.961	.	voice	2C 2e 2g 2b
=27	=27	=27	=27	=27	=27
2.IV	F:maj	99.913	.	voice	2F 2a 2cc
2.#ivo	F#:dim	101.864	.	voice	2F# 2a 2cc
=28	=28	=28	=28	=28	=28
2.I	C:maj	103.815	.	voice	2C 2e 2g
2.Im7	C:7	105.766	.	voice	2C 2e 2g 2b
=29	=29	=29	=29	=29	=29
2.IV	F:maj	107.717	newline	voice	2F 2a 2cc
2.#ivo	F#:dim	109.665	.	voice	2F# 2a 2cc
=30	=30	=30	=30	=30	=30
4.V	G:maj	111.613	.	voice	4G 4b 4dd
4.III7	E:7	112.587	.	voice	4E 4g# 4b 4dd
2.vi	A:min	113.561	.	voice	2A 2cc 2ee
=31	=31	=31	=31	=31	=31
2.Ie	C:maj/2	115.509	.	voice	2C 2e 2g
2.II7	D:7	117.458	.	voice	2D 2f# 2a 2cc
=32	=32	=32	=32	=32	=32
2.IVe	F:maj/2	119.406	.	voice	2F 2a 2cc
2.V7	G:7	121.354	.	voice	2G 2b 2dd 2ff
=33	=33	=33	=33	=33	=33
1.VI7	A:7	123.302	newline	voice	1A 1cc# 1ee 1gg
=34	=34	=34	=34	=34	=34
*>B2_verse	*>B2_verse	*>B2_verse	*>B2_verse	*>B2_verse	*>B2_verse
*D:	*D:	*	*	*	*D:
2.I	D:maj	127.221	newline	voice	2D 2f# 2a
2.vi	B:min	129.191	.	voice	2B 2dd 2ff#
=35	=35	=35	=35	=35	=35
2.IV	G:maj	131.161	.	voice	2G 2b 2dd
2.V	A:sus4	133.13	.	voice	2A 2cc# 2ee
=36	=36	=36	=36	=36	=36
2.I	D:maj	135.1	.	voice	2D 2f# 2a
2.vi	B:min	137.07	.	voice	2B 2dd 2ff#
=37	=37	=37	=37	=37	=37
2.IV	G:maj	139.04	.	voice	2G 2b 2dd
2.V	A:maj	141.01	.	voice	2A 2cc# 2ee
=38	=38	=38	=38	=38	=38
2.I	D:maj	142.979	newline	voice	2D 2f# 2a
2.Im7	D:7	144.953	.	voice	2D 2f# 2a 2cc#
=39	=39	=39	=39	=39	=39
2.IV	G:maj	146.927	.	voice	2G 2b 2dd
2.#ivo	G#:dim	148.901	.	voice	2G# 2b 2dd
=40	=40	=40	=40	=40	=40
2.Ic	D:maj/5	150.875	newline	voice	2d 2f# 2A
2.vi	B:min	152.793	.	voice	2B 2dd 2ff#
=41	=41	=41	=41	=41	=41
2.Ic	D:maj/5	154.711	.	voice	2d 2f# 2A
2.vi	B:min	156.629	.	voice	2B 2dd 2ff#
=42	=42	=42	=42	=42	=42
1.IV	G:maj	158.547	newline	voice	1G 1b 1dd
=43	=43	=43	=43	=43	=43
1.ii	E:min	162.373	.	voice	1E 1g 1b
=44	=44	=44	=44	=44	=44
1.V7	A:11	166.199	.	voice	1A 1cc# 1ee 1gg
=45	=45	=45	=45	=45	=45
1.V7	A:11	170.024	.	voice	1A 1cc# 1ee 1gg
=46	=46	=46	=46	=46	=46
4.I	D:maj	173.85	newline	voice	4D 4f# 4a
4.Ic	D:maj/5	174.827	.	voice	4d 4f# 4A
2.vi	B:min	175.804	.	voice	2B 2dd 2ff#
=47	=47	=47	=47	=47	=47
4.I	D:maj	177.758	.	voice	4D 4f# 4a
4.Ic	D:maj/5	178.735	.	voice	4d 4f# 4A
2.vi	B:min	179.712	.	voice	2B 2dd 2ff#
=48	=48	=48	=48	=48	=48
2.I	D:maj	181.665	newline	voice	2D 2f# 2a
2.IV	G:maj	183.607	.	voice	2G 2b 2dd
=49	=49	=49	=49	=49	=49
1.I	D:maj	185.55	.	voice	1D 1f# 1a
1r;	N	190.729	.	r	1r;
1r;	N	192.313	.	r	1r;
*-	*-	*-	*-	*-	*-
!!!OTL: If I Can Dream
!!!COC: Elvis Presley
!!!BillboardChartDate: 1968/12/28
!!!BillboardPeak: 12
!!!BillboardWeeksOnChart: 13
!!!SampleTargetRank: 31
!!!SampleActualRank: 30
!!!SampleID#: 0543
!!!RDF**harmony: **recip + pitch class of root + harmonic quality
!!!RDF**harte: Chris Harte's syntax, used by MIREX
!!!RDF**phrase: newline = linebreak in original McGill transcription
!!!RDF**timestamp: McGill audio timestamp in seconds
!!!RDF**leadinstrument: original McGill primary instrumentation annotation
!!!RDT: 2017/01/12/
!!!ENC: Nathaniel Condit-Schultz
!!!EST: Awating manual error checking and editing.
